X:1
T:Mrs Gibbon's Varsovienna
N:from the melodeon playing of Mrs Gibbons (Sally Sloane's twin sister)
Z:Ian Hayden 2017
M:3/4
L:1/8
K:D
F>G|"D"A2 d2 c2|"A"G4 E>F|G2 B2 A2|"D"F4 F>G|
"D"F2 E2 F2|"A"G4 (3FGA| B2 "A"G2 E2|"D"D4:|
A,>D|"D"F>G F D| F>G F D| F2G2F2|"A"E4 A,>C|
E>F G C|E>F G C|E2F2E2|"D"D4:|

